src/assets/obucheniye/icons/telegram.svg

<svg fill="none" height="40" viewBox="0 0 40 40" width="40" xmlns="http://www.w3.org/2000/svg"><path d="m37 0h-34c-1.65685 0-3 1.34315-3 3v34c0 1.6569 1.34315 3 3 3h34c1.6569 0 3-1.3431 3-3v-34c0-1.65685-1.3431-3-3-3z" fill="#61a8de"/><path d="m31.4967 8.82958-26.74847 10.42362c-.86639.3376-.81391 1.5809.07794 1.8442l6.79703 2.0072 2.5367 8.0491c.265.8408 1.3305 1.0957 1.9472.4659l3.5143-3.5883 6.8953 5.0614c.8438.6194 2.0456.1592 2.2598-.8654l4.5668-21.8339c.2237-1.06949-.8285-1.96054-1.8466-1.56382zm-3.3535 4.84552-12.4246 10.987c-.1238.1095-.2026.2611-.221.4254l-.4784 4.2523c-.0156.1387-.2097.1571-.2511.0238l-1.9681-6.3417c-.0901-.2903.0274-.6049.2857-.7651l14.6721-9.0998c.3374-.2094.6828.2551.3854.5181z" fill="#fff"/></svg>

<svg width="40" height="40" viewBox="0 0 40 40" fill="none" xmlns="http://www.w3.org/2000/svg">
<path d="M37 0H3C1.34315 0 0 1.34315 0 3V37C0 38.6569 1.34315 40 3 40H37C38.6569 40 40 38.6569 40 37V3C40 1.34315 38.6569 0 37 0Z" fill="#61A8DE"/>
<path d="M31.4967 8.82958L4.74823 19.2532C3.88184 19.5908 3.93432 20.8341 4.82617 21.0974L11.6232 23.1046L14.1599 31.1537C14.4249 31.9945 15.4904 32.2494 16.1071 31.6196L19.6214 28.0313L26.5167 33.0927C27.3605 33.7121 28.5623 33.2519 28.7765 32.2273L33.3433 10.3934C33.567 9.32391 32.5148 8.43286 31.4967 8.82958ZM28.1432 13.6751L15.7186 24.6621C15.5948 24.7716 15.516 24.9232 15.4976 25.0875L15.0192 29.3398C15.0036 29.4785 14.8095 29.4969 14.7681 29.3636L12.8 23.0219C12.7099 22.7316 12.8274 22.417 13.0857 22.2568L27.7578 13.157C28.0952 12.9476 28.4406 13.4121 28.1432 13.6751Z" fill="white"/>
</svg>
